X:180
T: Take Her Out and Air Her
S: "Where's the Crack v/1" (DJ Taylor)
Z: B.Black
N: This tune is written in two sharps but to me it
N: sounds more likely to be Dmix, especially in the
N: first part.
L: 1/8
M: 4/4
R: reel
K: D
AddB AFEF | GEcE dEcB | AddB AFFA | GEcE ED D2 |
AddB A2 EF | G2 AB c3 d | edcB AFEF | GEcE ED D2 :|
f3 d e3 d | cABc efge | f2 ed e2 cd | eaag fd d2 |
f2 fd e3 d | cAAB cBcd | edcB AFEF | GEcE ED D2 :|
